; LightBurn Pro 2.0.05
; xTool device profile, user origin
; Bounds: X0 Y0 to X120 Y80
M9 S0 N0
M101
M17 S1
M106 S0
M3 S0
G0 F3000
G21
G90
G0 X0 Y0
G91
; Cut @ 3600 mm/min, 50% power
M15 S4
M5 S0
G0 X25Y25
; Layer Brett
M4
G1 X70Y-0S500F3600
G1 X0Y40
G1 X-70Y0
G1 X0Y-40
M5 S0
G0 X50Y0
M4
G1 X0.026Y-1.029S500
G1 X0.077Y-1.016
G1 X0.127Y-1.001
G1 X0.176Y-0.985
G1 X0.224Y-0.967
G1 X0.269Y-0.949
G1 X0.315Y-0.93
G1 X0.358Y-0.908
G1 X0.4Y-0.886
G1 X0.442Y-0.862
G1 X0.481Y-0.838
G1 X0.521Y-0.811
G1 X0.557Y-0.784
G1 X0.594Y-0.756
G1 X0.629Y-0.726
G1 X0.662Y-0.694
G1 X0.694Y-0.662
G1 X0.726Y-0.629
G1 X0.756Y-0.594
G1 X0.784Y-0.557
G1 X0.811Y-0.521
G1 X0.838Y-0.481
G1 X0.862Y-0.442
G1 X0.886Y-0.4
G1 X0.908Y-0.358
G1 X0.93Y-0.315
G1 X0.949Y-0.269
G1 X0.967Y-0.224
G1 X0.985Y-0.176
G1 X1.001Y-0.127
G1 X1.016Y-0.077
G1 X1.029Y-0.026
G1 X1.029Y0.026
G1 X1.016Y0.077
G1 X1.001Y0.127
G1 X0.985Y0.176
G1 X0.967Y0.224
G1 X0.949Y0.269
G1 X0.93Y0.315
G1 X0.908Y0.358
G1 X0.886Y0.4
G1 X0.862Y0.442
G1 X0.838Y0.481
G1 X0.811Y0.521
G1 X0.784Y0.557
G1 X0.756Y0.594
G1 X0.726Y0.629
G1 X0.694Y0.662
G1 X0.662Y0.694
G1 X0.629Y0.726
G1 X0.594Y0.756
G1 X0.557Y0.784
G1 X0.521Y0.811
G1 X0.481Y0.838
G1 X0.442Y0.862
G1 X0.4Y0.886
G1 X0.358Y0.908
G1 X0.315Y0.93
G1 X0.269Y0.949
G1 X0.224Y0.967
G1 X0.176Y0.985
G1 X0.127Y1.001
G1 X0.077Y1.016
G1 X0.026Y1.029
G1 X-0.026Y1.029
G1 X-0.077Y1.016
G1 X-0.127Y1.001
G1 X-0.176Y0.985
G1 X-0.224Y0.967
G1 X-0.269Y0.949
G1 X-0.315Y0.93
G1 X-0.358Y0.908
G1 X-0.4Y0.886
G1 X-0.442Y0.862
G1 X-0.481Y0.838
G1 X-0.521Y0.811
G1 X-0.557Y0.784
G1 X-0.594Y0.756
G1 X-0.629Y0.726
G1 X-0.662Y0.694
G1 X-0.694Y0.662
G1 X-0.726Y0.629
G1 X-0.756Y0.594
G1 X-0.784Y0.557
G1 X-0.811Y0.521
G1 X-0.838Y0.481
G1 X-0.862Y0.442
G1 X-0.886Y0.4
G1 X-0.908Y0.358
G1 X-0.93Y0.315
G1 X-0.949Y0.269
G1 X-0.967Y0.224
G1 X-0.985Y0.176
G1 X-1.001Y0.127
G1 X-1.016Y0.077
G1 X-1.029Y0.026
G1 X-1.029Y-0.026
G1 X-1.016Y-0.077
G1 X-1.001Y-0.127
G1 X-0.985Y-0.176
G1 X-0.967Y-0.224
G1 X-0.949Y-0.269
G1 X-0.93Y-0.315
G1 X-0.908Y-0.358
G1 X-0.886Y-0.4
G1 X-0.862Y-0.442
G1 X-0.838Y-0.481
G1 X-0.811Y-0.521
G1 X-0.784Y-0.557
G1 X-0.756Y-0.594
G1 X-0.726Y-0.629
G1 X-0.694Y-0.662
G1 X-0.662Y-0.694
G1 X-0.629Y-0.726
G1 X-0.594Y-0.756
G1 X-0.557Y-0.784
G1 X-0.521Y-0.811
G1 X-0.481Y-0.838
G1 X-0.442Y-0.862
G1 X-0.4Y-0.886
G1 X-0.358Y-0.908
G1 X-0.315Y-0.93
G1 X-0.269Y-0.949
G1 X-0.224Y-0.967
G1 X-0.176Y-0.985
G1 X-0.127Y-1.001
G1 X-0.077Y-1.016
G1 X-0.026Y-1.029
; Cut @ 6000 mm/min, 25% power
M15 S4
M5 S0
G0 X45Y-25
; Layer Kutt
M4
G1 X0Y80S250F6000
G1 X-120Y0
G1 X0Y-80
G1 X120Y0
; Scan @ 6000 mm/min, 12.5% power
M15 S4
M5 S0
G0 X-55.152Y54.95
; Layer Tekst
G1 X-1.862S125
G1 X-12.564S0
G1 X-1.977S125
G1 X-12.049Y-0.1S0
G1 X0.825S125
G1 X10.523S0
G1 X3.454S125
G1 X11.086S0
G1 X3.266S125
G1 X0.457Y-0.1S0
G1 X-4.161S125
G1 X-10.181S0
G1 X-4.324S125
G1 X-9.279S0
G1 X-2.525S125
G1 X-0.537Y-0.1S0
G1 X3.429S125
G1 X8.537S0
G1 X5.062S125
G1 X9.469S0
G1 X4.847S125
G1 X9.49S0
G1 X2.627S125
G1 Y-0.1S0
G1 X-2.627S125
G1 X-9.183S0
G1 X-5.449S125
G1 X-8.858S0
G1 X-5.649S125
G1 X-8.018S0
G1 X-3.66S125
G1 X0.016Y-0.1S0
G1 X3.866S125
G1 X7.525S0
G1 X6.159S125
G1 X8.377S0
G1 X5.94S125
G1 X8.934S0
G1 X2.627S125
G1 Y-0.1S0
G1 X-2.627S125
G1 X-8.71S0
G1 X-6.392S125
G1 X-7.912S0
G1 X-6.617S125
G1 X-7.153S0
G1 X-4S125
G1 X0.016Y-0.1S0
G1 X4.134S125
G1 X6.807S0
G1 X6.996S125
G1 X7.534S0
G1 X6.81S125
G1 X8.487S0
G1 X2.627S125
G1 Y-0.1S0
G1 X-2.627S125
G1 X-8.315S0
G1 X-7.163S125
G1 X-7.169S0
G1 X-7.376S125
G1 X-6.49S0
G1 X-4.238S125
G1 X0.016Y-0.1S0
G1 X4.333S125
G1 X6.206S0
G1 X7.705S125
G1 X6.841S0
G1 X7.505S125
G1 X8.145S0
G1 X2.627S125
G1 Y-0.1S0
G1 X-2.627S125
G1 X-7.974S0
G1 X-7.824S125
G1 X-6.549S0
G1 X-7.993S125
G1 X-5.958S0
G1 X-4.42S125
G1 X0.016Y-0.1S0
G1 X4.484S125
G1 X5.733S0
G1 X8.281S125
G1 X6.259S0
G1 X8.117S125
G1 X7.828S0
G1 X2.627S125
G1 Y-0.1S0
G1 X-2.627S125
G1 X-7.695S0
G1 X-8.386S125
G1 X-6.007S0
G1 X-8.541S125
G1 X-5.51S0
G1 X-4.546S125
G1 X0.016Y-0.1S0
G1 X4.603S125
G1 X5.316S0
G1 X8.777S125
G1 X5.77S0
G1 X8.642S125
G1 X7.561S0
G1 X2.627S125
G1 Y-0.1S0
G1 X-2.627S125
G1 X-7.427S0
G1 X-8.898S125
G1 X-5.534S0
G1 X-8.998S125
G1 X-5.155S0
G1 X-4.64S125
G1 X0.016Y-0.1S0
G1 X4.679S125
G1 X4.993S0
G1 X9.201S125
G1 X5.321S0
G1 X9.128S125
G1 X7.314S0
G1 X2.627S125
G1 Y-0.1S0
G1 X-2.627S125
G1 X-7.207S0
G1 X-9.337S125
G1 X-5.126S0
G1 X-9.401S125
G1 X-4.833S0
G1 X-4.715S125
G1 X0.016Y-0.1S0
G1 X4.736S125
G1 X4.694S0
G1 X9.596S125
G1 X4.93S0
G1 X9.547S125
G1 X7.1S0
G1 X2.627S125
G1 Y-0.1S0
G1 X-2.627S125
G1 X-6.993S0
G1 X-9.756S125
G1 X-4.743S0
G1 X-9.759S125
G1 X-4.582S0
G1 X-4.753S125
G1 X0.016Y-0.1S0
G1 X4.763S125
G1 X4.478S0
G1 X9.912S125
G1 X4.579S0
G1 X9.947S125
G1 X6.891S0
G1 X2.627S125
G1 Y-0.1S0
G1 X-2.627S125
G1 X-6.806S0
G1 X-4.364S125
G1 X-1.514S0
G1 X-4.239S125
G1 X-4.418S0
G1 X-4.234S125
G1 X-1.806S0
G1 X-4.027S125
G1 X-4.374S0
G1 X-4.771S125
G1 X0.016Y-0.1S0
G1 X4.775S125
G1 X4.276S0
G1 X3.595S125
G1 X2.805S0
G1 X3.821S125
G1 X4.256S0
G1 X3.881S125
G1 X2.417S0
G1 X3.991S125
G1 X6.72S0
G1 X2.627S125
G1 Y-0.1S0
G1 X-2.627S125
G1 X-6.634S0
G1 X-3.779S125
G1 X-3.011S0
G1 X-3.67S125
G1 X-4.106S0
G1 X-3.565S125
G1 X-3.446S0
G1 X-3.351S125
G1 X-4.182S0
G1 X-4.776S125
G1 X0.016Y-0.1S0
G1 X4.777S125
G1 X4.108S0
G1 X3.174S125
G1 X3.925S0
G1 X3.381S125
G1 X3.973S0
G1 X3.513S125
G1 X3.484S0
G1 X3.62S125
G1 X6.549S0
G1 X2.627S125
G1 Y-0.1S0
G1 X-2.627S125
G1 X-6.466S0
G1 X-3.494S125
G1 X-3.885S0
G1 X-3.392S125
G1 X-3.841S0
G1 X-3.238S125
G1 X-4.316S0
G1 X-3.044S125
G1 X-4.037S0
G1 X-3.16S125
G1 X-1.354S0
G1 X-0.26S125
G1 X1.878Y-0.1S0
G1 X2.908S125
G1 X3.967S0
G1 X2.943S125
G1 X4.647S0
G1 X3.127S125
G1 X3.709S0
G1 X3.292S125
G1 X4.229S0
G1 X3.388S125
G1 X6.399S0
G1 X2.627S125
G1 Y-0.1S0
G1 X-2.627S125
G1 X-6.331S0
G1 X-3.294S125
G1 X-4.54S0
G1 X-3.215S125
G1 X-3.583S0
G1 X-3.038S125
G1 X-4.926S0
G1 X-2.864S125
G1 X-3.897S0
G1 X-2.769S125
G1 X0.108Y-0.1S0
G1 X2.671S125
G1 X3.83S0
G1 X2.807S125
G1 X5.176S0
G1 X2.951S125
G1 X3.474S0
G1 X3.143S125
G1 X4.815S0
G1 X3.219S125
G1 X6.263S0
G1 X2.627S125
G1 Y-0.1S0
G1 X-2.627S125
G1 X-6.195S0
G1 X-3.158S125
G1 X-5.067S0
G1 X-3.079S125
G1 X-3.367S0
G1 X-2.889S125
G1 X-5.393S0
G1 X-2.745S125
G1 X-3.776S0
G1 X-2.598S125
G1 X0.063Y-0.1S0
G1 X2.543S125
G1 X3.729S0
G1 X2.692S125
G1 X5.594S0
G1 X2.829S125
G1 X3.259S0
G1 X3.031S125
G1 X5.302S0
G1 X3.097S125
G1 X6.128S0
G1 X2.627S125
G1 Y-0.1S0
G1 X-2.627S125
G1 X-6.07S0
G1 X-3.049S125
G1 X-5.51S0
G1 X-2.989S125
G1 X-3.152S0
G1 X-2.786S125
G1 X-5.77S0
G1 X-2.646S125
G1 X-3.68S0
G1 X-2.503S125
G1 X0.029Y-0.1S0
G1 X2.48S125
G1 X3.634S0
G1 X2.612S125
G1 X5.933S0
G1 X2.736S125
G1 X3.06S0
G1 X2.95S125
G1 X5.709S0
G1 X2.995S125
G1 X6.017S0
G1 X2.627S125
G1 Y-0.1S0
G1 X-2.627S125
G1 X-5.964S0
G1 X-2.945S125
G1 X-5.898S0
G1 X-2.913S125
G1 X-2.973S0
G1 X-2.698S125
G1 X-6.076S0
G1 X-2.584S125
G1 X-3.589S0
G1 X-2.461S125
G1 X0.015Y-0.1S0
G1 X2.451S125
G1 X3.546S0
G1 X2.563S125
G1 X6.207S0
G1 X2.665S125
G1 X2.886S0
G1 X2.878S125
G1 X6.067S0
G1 X2.912S125
G1 X5.911S0
G1 X2.627S125
G1 Y-0.1S0
G1 X-2.627S125
G1 X-5.859S0
G1 X-2.877S125
G1 X-6.227S0
G1 X-2.854S125
G1 X-2.799S0
G1 X-2.636S125
G1 X-6.325S0
G1 X-2.535S125
G1 X-3.517S0
G1 X-2.443S125
G1 X0.011Y-0.1S0
G1 X2.436S125
G1 X3.49S0
G1 X2.514S125
G1 X6.427S0
G1 X2.613S125
G1 X2.715S0
G1 X2.83S125
G1 X6.386S0
G1 X2.844S125
G1 X5.806S0
G1 X2.627S125
G1 Y-0.1S0
G1 X-2.627S125
G1 X-5.761S0
G1 X-2.817S125
G1 X-6.525S0
G1 X-2.804S125
G1 X-2.644S0
G1 X-2.585S125
G1 X-6.523S0
G1 X-2.499S125
G1 X-3.464S0
G1 X-2.433S125
G1 X0.007Y-0.1S0
G1 X2.429S125
G1 X3.438S0
G1 X2.492S125
G1 X6.602S0
G1 X2.565S125
G1 X2.576S0
G1 X2.781S125
G1 X6.656S0
G1 X2.788S125
G1 X5.721S0
G1 X2.627S125
G1 Y-0.1S0
G1 X-2.627S125
G1 X-5.681S0
G1 X-2.759S125
G1 X-6.787S0
G1 X-2.758S125
G1 X-2.508S0
G1 X-2.548S125
G1 X-6.674S0
G1 X-2.489S125
G1 X-3.412S0
G1 X-2.426S125
G1 Y-0.1S0
G1 X2.429S125
G1 X3.391S0
G1 X2.49S125
G1 X6.736S0
G1 X2.533S125
G1 X2.439S0
G1 X2.74S125
G1 X6.91S0
G1 X2.733S125
G1 X5.641S0
G1 X2.627S125
G1 Y-0.1S0
G1 X-2.627S125
G1 X-5.601S0
G1 X-2.719S125
G1 X-7.017S0
G1 X-2.727S125
G1 X-2.372S0
G1 X-2.522S125
G1 X-6.789S0
G1 X-2.482S125
G1 X-3.383S0
G1 X-2.425S125
G1 Y-0.1S0
G1 X2.426S125
G1 X3.374S0
G1 X2.484S125
G1 X6.83S0
G1 X2.509S125
G1 X2.318S0
G1 X2.706S125
G1 X7.125S0
G1 X2.703S125
G1 X5.562S0
G1 X2.627S125
G1 Y-0.1S0
G1 X-2.627S125
G1 X-5.523S0
G1 X-2.687S125
G1 X-7.23S0
G1 X-2.687S125
G1 X-2.266S0
G1 X-2.495S125
G1 X-6.871S0
G1 X-2.485S125
G1 X-3.366S0
G1 X-2.423S125
G1 Y-0.1S0
G1 X2.424S125
G1 X3.357S0
G1 X2.504S125
G1 X6.888S0
G1 X2.489S125
G1 X2.213S0
G1 X2.672S125
G1 X7.327S0
G1 X2.665S125
G1 X5.494S0
G1 X2.627S125
G1 Y-0.1S0
G1 X-2.627S125
G1 X-5.465S0
G1 X-2.651S125
G1 X-7.415S0
G1 X-2.658S125
G1 X-2.161S0
G1 X-2.484S125
G1 X-6.902S0
G1 X-2.523S125
G1 X-3.349S0
G1 X-2.423S125
G1 Y-0.1S0
G1 X2.423S125
G1 X3.347S0
G1 X2.536S125
G1 X6.917S0
G1 X2.48S125
G1 X2.108S0
G1 X2.643S125
G1 X7.504S0
G1 X2.637S125
G1 X5.436S0
G1 X2.627S125
G1 Y-0.1S0
G1 X-2.627S125
G1 X-5.407S0
G1 X-2.624S125
G1 X-7.585S0
G1 X-2.246S125
G1 X-2.927S0
G1 X-1.997S125
G1 X-6.925S0
G1 X-2.544S125
G1 X-3.353S0
G1 X-2.423S125
G1 Y-0.1S0
G1 X2.423S125
G1 X3.359S0
G1 X2.577S125
G1 X6.904S0
G1 X1.338S125
G1 X4.384S0
G1 X1.391S125
G1 X7.667S0
G1 X2.61S125
G1 X5.378S0
G1 X2.627S125
G1 Y-0.1S0
G1 X-2.627S125
G1 X-5.349S0
G1 X-2.606S125
G1 X-7.739S0
G1 X-0.537S125
G1 X-5.841S0
G1 X-0.679S125
G1 X-6.882S0
G1 X-2.61S125
G1 X-3.365S0
G1 X-2.423S125
G1 Y-0.1S0
G1 X2.423S125
G1 X3.371S0
G1 X2.643S125
G1 X6.861S0
G1 X0.02S125
G1 X14.79S0
G1 X2.602S125
G1 X5.321S0
G1 X2.627S125
G1 Y-0.1S0
G1 X-2.627S125
G1 X-5.302S0
G1 X-2.588S125
G1 X-21.642S0
G1 X-2.699S125
G1 X-3.377S0
G1 X-2.423S125
G1 Y-0.1S0
G1 X2.423S125
G1 X3.39S0
G1 X2.76S125
G1 X21.6S0
G1 X2.575S125
G1 X5.283S0
G1 X2.627S125
G1 Y-0.1S0
G1 X-2.627S125
G1 X-5.264S0
G1 X-2.564S125
G1 X-21.555S0
G1 X-2.815S125
G1 X-3.41S0
G1 X-2.423S125
G1 Y-0.1S0
G1 X2.423S125
G1 X3.431S0
G1 X2.899S125
G1 X21.473S0
G1 X2.561S125
G1 X5.244S0
G1 X2.627S125
G1 Y-0.1S0
G1 X-2.627S125
G1 X-5.225S0
G1 X-2.556S125
G1 X-21.375S0
G1 X-3.001S125
G1 X-3.451S0
G1 X-2.423S125
G1 Y-0.1S0
G1 X2.423S125
G1 X3.471S0
G1 X3.107S125
G1 X21.272S0
G1 X2.552S125
G1 X5.206S0
G1 X2.627S125
G1 Y-0.1S0
G1 X-2.627S125
G1 X-5.186S0
G1 X-2.548S125
G1 X-21.108S0
G1 X-3.274S125
G1 X-3.492S0
G1 X-2.423S125
G1 Y-0.1S0
G1 X2.423S125
G1 X3.529S0
G1 X3.469S125
G1 X20.897S0
G1 X2.541S125
G1 X5.172S0
G1 X2.627S125
G1 Y-0.1S0
G1 X-2.627S125
G1 X-5.161S0
G1 X-2.536S125
G1 X-20.643S0
G1 X-3.702S125
G1 X-3.566S0
G1 X-2.423S125
G1 Y-0.1S0
G1 X2.423S125
G1 X3.603S0
G1 X3.966S125
G1 X20.358S0
G1 X2.53S125
G1 X5.151S0
G1 X2.627S125
G1 Y-0.1S0
G1 X-2.627S125
G1 X-5.14S0
G1 X-2.526S125
G1 X-20.045S0
G1 X-4.257S125
G1 X-3.64S0
G1 X-2.423S125
G1 Y-0.1S0
G1 X2.423S125
G1 X3.68S0
G1 X4.568S125
G1 X19.71S0
G1 X2.521S125
G1 X5.129S0
G1 X2.627S125
G1 Y-0.1S0
G1 X-2.627S125
G1 X-5.118S0
G1 X-2.516S125
G1 X-19.355S0
G1 X-4.881S125
G1 X-3.738S0
G1 X-2.423S125
G1 Y-0.1S0
G1 X2.423S125
G1 X3.795S0
G1 X5.214S125
G1 X18.974S0
G1 X2.518S125
G1 X5.107S0
G1 X2.627S125
G1 Y-0.1S0
G1 X-2.627S125
G1 X-5.096S0
G1 X-2.52S125
G1 X-18.592S0
G1 X-5.547S125
G1 X-3.853S0
G1 X-2.423S125
G1 Y-0.1S0
G1 X2.423S125
G1 X3.911S0
G1 X5.876S125
G1 X18.214S0
G1 X2.517S125
G1 X5.09S0
G1 X2.627S125
G1 Y-0.1S0
G1 X-2.627S125
G1 X-5.087S0
G1 X-2.511S125
G1 X-17.851S0
G1 X-6.173S125
G1 X-3.986S0
G1 X-2.423S125
G1 Y-0.1S0
G1 X2.423S125
G1 X4.067S0
G1 X6.452S125
G1 X17.5S0
G1 X2.506S125
G1 X5.083S0
G1 X2.627S125
G1 Y-0.1S0
G1 X-2.627S125
G1 X-5.08S0
G1 X-13.225S125
G1 X-6.434S0
G1 X-6.72S125
G1 X-4.149S0
G1 X-2.423S125
G1 Y-0.1S0
G1 X2.423S125
G1 X4.23S0
G1 X6.971S125
G1 X6.099S0
G1 X13.231S125
G1 X5.077S0
G1 X2.627S125
G1 Y-0.1S0
G1 X-2.627S125
G1 X-5.073S0
G1 X-13.238S125
G1 X-5.779S0
G1 X-7.184S125
G1 X-4.334S0
G1 X-2.423S125
G1 Y-0.1S0
G1 X2.423S125
G1 X4.443S0
G1 X7.378S125
G1 X5.474S0
G1 X13.243S125
G1 X5.07S0
G1 X2.627S125
G1 Y-0.1S0
G1 X-2.627S125
G1 X-5.066S0
G1 X-13.25S125
G1 X-5.187S0
G1 X-7.552S125
G1 X-4.553S0
G1 X-2.423S125
G1 Y-0.1S0
G1 X2.423S125
G1 X4.677S0
G1 X7.689S125
G1 X4.925S0
G1 X13.253S125
G1 X5.064S0
G1 X2.627S125
G1 Y-0.1S0
G1 X-2.627S125
G1 X-5.068S0
G1 X-13.25S125
G1 X-4.683S0
G1 X-7.784S125
G1 X-4.823S0
G1 X-2.423S125
G1 Y-0.1S0
G1 X2.423S125
G1 X4.97S0
G1 X7.852S125
G1 X4.47S0
G1 X13.245S125
G1 X5.071S0
G1 X2.627S125
G1 Y-0.1S0
G1 X-2.627S125
G1 X-5.074S0
G1 X-13.239S125
G1 X-4.291S0
G1 X-7.863S125
G1 X-5.141S0
G1 X-2.423S125
G1 Y-0.1S0
G1 X2.423S125
G1 X5.34S0
G1 X7.845S125
G1 X4.114S0
G1 X13.231S125
G1 X5.078S0
G1 X2.627S125
G1 Y-0.1S0
G1 X-2.627S125
G1 X-5.081S0
G1 X-13.225S125
G1 X-3.963S0
G1 X-7.797S125
G1 X-5.542S0
G1 X-2.423S125
G1 Y-0.1S0
G1 X2.423S125
G1 X5.79S0
G1 X7.683S125
G1 X3.832S0
G1 X13.219S125
G1 X5.084S0
G1 X2.627S125
G1 Y-0.1S0
G1 X-2.627S125
G1 X-5.088S0
G1 X-13.211S125
G1 X-3.701S0
G1 X-7.548S125
G1 X-6.06S0
G1 X-2.423S125
G1 Y-0.1S0
G1 X2.423S125
G1 X6.348S0
G1 X7.379S125
G1 X3.585S0
G1 X13.205S125
G1 X5.091S0
G1 X2.627S125
G1 Y-0.1S0
G1 X-2.627S125
G1 X-5.098S0
G1 X-13.195S125
G1 X-3.488S0
G1 X-7.177S125
G1 X-6.65S0
G1 X-2.423S125
G1 Y-0.1S0
G1 X2.423S125
G1 X6.964S0
G1 X6.963S125
G1 X3.393S0
G1 X13.18S125
G1 X5.108S0
G1 X2.627S125
G1 Y-0.1S0
G1 X-2.627S125
G1 X-5.119S0
G1 X-13.159S125
G1 X-3.304S0
G1 X-6.732S125
G1 X-7.294S0
G1 X-2.423S125
G1 Y-0.1S0
G1 X2.423S125
G1 X7.634S0
G1 X6.471S125
G1 X3.236S0
G1 X13.137S125
G1 X5.13S0
G1 X2.627S125
G1 Y-0.1S0
G1 X-2.627S125
G1 X-5.14S0
G1 X-13.116S125
G1 X-3.174S0
G1 X-6.197S125
G1 X-7.981S0
G1 X-2.423S125
G1 Y-0.1S0
G1 X2.423S125
G1 X8.34S0
G1 X5.911S125
G1 X3.111S0
G1 X13.095S125
G1 X5.151S0
G1 X2.627S125
G1 Y-0.1S0
G1 X-2.627S125
G1 X-5.162S0
G1 X-2.558S125
G1 X-8.022S0
G1 X-2.493S125
G1 X-3.049S0
G1 X-5.619S125
G1 X-8.705S0
G1 X-2.423S125
G1 Y-0.1S0
G1 X2.423S125
G1 X9.076S0
G1 X5.306S125
G1 X3.001S0
G1 X2.494S125
G1 X8S0
G1 X2.559S125
G1 X5.172S0
G1 X2.627S125
G1 Y-0.1S0
G1 X-2.627S125
G1 X-5.185S0
G1 X-2.556S125
G1 X-7.978S0
G1 X-2.495S125
G1 X-2.959S0
G1 X-4.989S125
G1 X-9.446S0
G1 X-2.423S125
G1 Y-0.1S0
G1 X2.423S125
G1 X9.81S0
G1 X4.677S125
G1 X2.918S0
G1 X2.495S125
G1 X7.957S0
G1 X2.547S125
G1 X5.204S0
G1 X2.627S125
G1 Y-0.1S0
G1 X-2.627S125
G1 X-5.222S0
G1 X-2.539S125
G1 X-7.936S0
G1 X-2.487S125
G1 X-2.884S0
G1 X-4.368S125
G1 X-10.172S0
G1 X-2.423S125
G1 Y-0.1S0
G1 X2.423S125
G1 X10.524S0
G1 X4.064S125
G1 X2.855S0
G1 X2.485S125
G1 X7.902S0
G1 X2.537S125
G1 X5.241S0
G1 X2.627S125
G1 Y-0.1S0
G1 X-2.627S125
G1 X-5.26S0
G1 X-2.536S125
G1 X-7.867S0
G1 X-2.483S125
G1 X-2.838S0
G1 X-3.754S125
G1 X-10.87S0
G1 X-2.423S125
G1 Y-0.1S0
G1 X2.423S125
G1 X11.193S0
G1 X3.467S125
G1 X2.82S0
G1 X2.482S125
G1 X7.832S0
G1 X2.535S125
G1 X5.279S0
G1 X2.627S125
G1 Y-0.1S0
G1 X-2.627S125
G1 X-5.298S0
G1 X-2.534S125
G1 X-7.798S0
G1 X-2.479S125
G1 X-2.803S0
G1 X-3.26S125
G1 X-11.436S0
G1 X-2.423S125
G1 Y-0.1S0
G1 X2.423S125
G1 X11.639S0
G1 X3.093S125
G1 X2.786S0
G1 X2.483S125
G1 X7.753S0
G1 X2.537S125
G1 X5.317S0
G1 X2.627S125
G1 Y-0.1S0
G1 X-2.627S125
G1 X-5.34S0
G1 X-2.541S125
G1 X-7.703S0
G1 X-2.487S125
G1 X-2.779S0
G1 X-2.952S125
G1 X-11.806S0
G1 X-2.423S125
G1 Y-0.1S0
G1 X2.423S125
G1 X11.941S0
G1 X2.838S125
G1 X2.781S0
G1 X2.487S125
G1 X7.653S0
G1 X2.539S125
G1 X5.369S0
G1 X2.627S125
G1 Y-0.1S0
G1 X-2.627S125
G1 X-5.397S0
G1 X-2.539S125
G1 X-7.602S0
G1 X-2.482S125
G1 X-2.789S0
G1 X-2.736S125
G1 X-12.063S0
G1 X-2.423S125
G1 Y-0.1S0
G1 X2.423S125
G1 X12.155S0
G1 X2.665S125
G1 X2.797S0
G1 X2.483S125
G1 X7.542S0
G1 X2.541S125
G1 X5.425S0
G1 X2.627S125
G1 Y-0.1S0
G1 X-2.627S125
G1 X-5.453S0
G1 X-2.55S125
G1 X-7.475S0
G1 X-2.485S125
G1 X-2.805S0
G1 X-2.599S125
G1 X-12.241S0
G1 X-2.423S125
G1 Y-0.1S0
G1 X2.423S125
G1 X12.308S0
G1 X2.543S125
G1 X2.822S0
G1 X2.488S125
G1 X7.407S0
G1 X2.558S125
G1 X5.482S0
G1 X2.627S125
G1 Y-0.1S0
G1 X-2.627S125
G1 X-5.51S0
G1 X-2.567S125
G1 X-7.335S0
G1 X-2.495S125
G1 X-2.844S0
G1 X-2.488S125
G1 X-12.369S0
G1 X-2.423S125
G1 Y-0.1S0
G1 X2.423S125
G1 X12.414S0
G1 X2.45S125
G1 X2.865S0
G1 X2.505S125
G1 X7.254S0
G1 X2.579S125
G1 X5.541S0
G1 X2.627S125
G1 Y-0.1S0
G1 X-2.627S125
G1 X-5.58S0
G1 X-2.589S125
G1 X-7.167S0
G1 X-2.51S125
G1 X-2.892S0
G1 X-2.415S125
G1 X-6.169S0
G1 X-0.556S125
G1 X-5.73S0
G1 X-2.423S125
G1 Y-0.1S0
G1 X2.423S125
G1 X4.99S0
G1 X1.319S125
G1 X6.172S0
G1 X2.396S125
G1 X2.924S0
G1 X2.513S125
G1 X7.077S0
G1 X2.598S125
G1 X5.619S0
G1 X2.627S125
G1 Y-0.1S0
G1 X-2.627S125
G1 X-5.658S0
G1 X-2.607S125
G1 X-6.98S0
G1 X-2.523S125
G1 X-2.964S0
G1 X-2.37S125
G1 X-6.174S0
G1 X-2.081S125
G1 X-4.251S0
G1 X-2.423S125
G1 Y-0.1S0
G1 X2.423S125
G1 X3.897S0
G1 X2.458S125
G1 X6.159S0
G1 X2.356S125
G1 X3.009S0
G1 X2.532S125
G1 X6.872S0
G1 X2.628S125
G1 X5.697S0
G1 X2.627S125
G1 Y-0.1S0
G1 X-2.627S125
G1 X-5.736S0
G1 X-2.651S125
G1 X-6.757S0
G1 X-2.546S125
G1 X-3.054S0
G1 X-2.342S125
G1 X-6.144S0
G1 X-2.46S125
G1 X-3.918S0
G1 X-2.423S125
G1 Y-0.1S0
G1 X2.423S125
G1 X3.939S0
G1 X2.472S125
G1 X6.103S0
G1 X2.345S125
G1 X3.098S0
G1 X2.568S125
G1 X6.635S0
G1 X2.673S125
G1 X5.775S0
G1 X2.627S125
G1 Y-0.1S0
G1 X-2.627S125
G1 X-5.821S0
G1 X-2.696S125
G1 X-6.505S0
G1 X-2.59S125
G1 X-3.143S0
G1 X-2.351S125
G1 X-6.048S0
G1 X-2.494S125
G1 X-3.96S0
G1 X-2.423S125
G1 Y-0.1S0
G1 X2.423S125
G1 X3.981S0
G1 X2.516S125
G1 X5.992S0
G1 X2.347S125
G1 X3.208S0
G1 X2.613S125
G1 X6.358S0
G1 X2.72S125
G1 X5.873S0
G1 X2.627S125
G1 Y-0.1S0
G1 X-2.627S125
G1 X-5.924S0
G1 X-2.745S125
G1 X-6.207S0
G1 X-2.636S125
G1 X-3.279S0
G1 X-2.346S125
G1 X-5.932S0
G1 X-2.537S125
G1 X-4.002S0
G1 X-2.423S125
G1 Y-0.1S0
G1 X2.423S125
G1 X4.023S0
G1 X2.559S125
G1 X5.849S0
G1 X2.368S125
G1 X3.348S0
G1 X2.666S125
G1 X6.043S0
G1 X2.776S125
G1 X5.976S0
G1 X2.627S125
G1 Y-0.1S0
G1 X-2.627S125
G1 X-6.027S0
G1 X-2.818S125
G1 X-5.857S0
G1 X-2.707S125
G1 X-3.418S0
G1 X-2.39S125
G1 X-5.742S0
G1 X-2.594S125
G1 X-4.055S0
G1 X-2.423S125
G1 Y-0.1S0
G1 X2.423S125
G1 X4.086S0
G1 X2.631S125
G1 X5.634S0
G1 X2.406S125
G1 X3.493S0
G1 X2.748S125
G1 X5.672S0
G1 X2.859S125
G1 X6.079S0
G1 X2.627S125
G1 Y-0.1S0
G1 X-2.627S125
G1 X-6.135S0
G1 X-2.906S125
G1 X-5.476S0
G1 X-2.789S125
G1 X-3.577S0
G1 X-2.442S125
G1 X-5.497S0
G1 X-2.668S125
G1 X-4.118S0
G1 X-2.423S125
G1 Y-0.1S0
G1 X2.423S125
G1 X4.15S0
G1 X2.705S125
G1 X5.356S0
G1 X2.482S125
G1 X3.67S0
G1 X2.843S125
G1 X5.248S0
G1 X2.952S125
G1 X6.202S0
G1 X2.627S125
G1 Y-0.1S0
G1 X-2.627S125
G1 X-6.268S0
G1 X-2.999S125
G1 X-5.021S0
G1 X-2.89S125
G1 X-3.769S0
G1 X-2.522S125
G1 X-5.183S0
G1 X-2.775S125
G1 X-4.181S0
G1 X-2.423S125
G1 Y-0.1S0
G1 X2.423S125
G1 X4.214S0
G1 X2.845S125
G1 X4.98S0
G1 X2.589S125
G1 X3.868S0
G1 X2.944S125
G1 X4.766S0
G1 X3.068S125
G1 X6.334S0
G1 X2.627S125
G1 Y-0.1S0
G1 X-2.627S125
G1 X-6.401S0
G1 X-3.138S125
G1 X-4.485S0
G1 X-3.022S125
G1 X-3.98S0
G1 X-2.653S125
G1 X-4.766S0
G1 X-2.904S125
G1 X-4.259S0
G1 X-2.423S125
G1 Y-0.1S0
G1 X2.423S125
G1 X4.304S0
G1 X2.983S125
G1 X4.533S0
G1 X2.716S125
G1 X4.092S0
G1 X3.1S125
G1 X4.182S0
G1 X3.231S125
G1 X6.467S0
G1 X2.627S125
G1 Y-0.1S0
G1 X-2.627S125
G1 X-6.544S0
G1 X-3.325S125
G1 X-3.832S0
G1 X-3.211S125
G1 X-4.207S0
G1 X-2.815S125
G1 X-4.242S0
G1 X-3.082S125
G1 X-4.35S0
G1 X-2.423S125
G1 Y-0.1S0
G1 X2.423S125
G1 X4.395S0
G1 X3.216S125
G1 X3.883S0
G1 X2.949S125
G1 X4.337S0
G1 X3.314S125
G1 X3.438S0
G1 X3.448S125
G1 X6.628S0
G1 X2.627S125
G1 Y-0.1S0
G1 X-2.627S125
G1 X-6.712S0
G1 X-3.596S125
G1 X-2.961S0
G1 X-3.475S125
G1 X-4.482S0
G1 X-3.121S125
G1 X-3.427S0
G1 X-3.394S125
G1 X-4.44S0
G1 X-2.423S125
G1 X-2.451Y-0.1S0
G1 X6.661S125
G1 X2.714S0
G1 X3.622S125
G1 X2.818S0
G1 X3.38S125
G1 X4.626S0
G1 X3.687S125
G1 X2.37S0
G1 X3.809S125
G1 X6.795S0
G1 X2.627S125
G1 Y-0.1S0
G1 X-2.627S125
G1 X-6.879S0
G1 X-4.173S125
G1 X-1.477S0
G1 X-4.048S125
G1 X-4.772S0
G1 X-3.843S125
G1 X-1.83S0
G1 X-4.022S125
G1 X-2.777S0
G1 X-6.661S125
G1 Y-0.1S0
G1 X6.661S125
G1 X2.839S0
G1 X9.57S125
G1 X4.919S0
G1 X9.522S125
G1 X6.971S0
G1 X2.627S125
G1 Y-0.1S0
G1 X-2.627S125
G1 X-7.075S0
G1 X-9.315S125
G1 X-5.1S0
G1 X-9.429S125
G1 X-2.902S0
G1 X-6.661S125
G1 Y-0.1S0
G1 X6.661S125
G1 X2.976S0
G1 X9.276S125
G1 X5.283S0
G1 X9.107S125
G1 X7.179S0
G1 X2.627S125
G1 Y-0.1S0
G1 X-2.627S125
G1 X-7.283S0
G1 X-8.899S125
G1 X-5.466S0
G1 X-9.108S125
G1 X-3.065S0
G1 X-6.661S125
G1 Y-0.1S0
G1 X6.661S125
G1 X3.153S0
G1 X8.93S125
G1 X5.659S0
G1 X8.692S125
G1 X7.387S0
G1 X2.627S125
G1 Y-0.1S0
G1 X-2.627S125
G1 X-7.509S0
G1 X-8.456S125
G1 X-5.872S0
G1 X-8.742S125
G1 X-3.242S0
G1 X-6.661S125
G1 Y-0.1S0
G1 X6.661S125
G1 X3.348S0
G1 X8.536S125
G1 X6.1S0
G1 X8.2S125
G1 X7.637S0
G1 X2.627S125
G1 Y-0.1S0
G1 X-2.627S125
G1 X-7.766S0
G1 X-7.943S125
G1 X-6.336S0
G1 X-8.304S125
G1 X-3.472S0
G1 X-6.661S125
G1 Y-0.1S0
G1 X6.661S125
G1 X3.595S0
G1 X8.056S125
G1 X6.589S0
G1 X7.686S125
G1 X7.895S0
G1 X2.627S125
G1 Y-0.1S0
G1 X-2.627S125
G1 X-8.046S0
G1 X-7.391S125
G1 X-6.859S0
G1 X-7.805S125
G1 X-3.72S0
G1 X-6.661S125
G1 Y-0.1S0
G1 X6.661S125
G1 X3.888S0
G1 X7.498S125
G1 X7.159S0
G1 X7.068S125
G1 X8.208S0
G1 X2.627S125
G1 Y-0.1S0
G1 X-2.627S125
G1 X-8.371S0
G1 X-6.744S125
G1 X-7.475S0
G1 X-7.175S125
G1 X-4.056S0
G1 X-6.661S125
G1 Y-0.1S0
G1 X6.661S125
G1 X4.224S0
G1 X6.834S125
G1 X7.815S0
G1 X6.402S125
G1 X8.546S0
G1 X2.627S125
G1 Y-0.1S0
G1 X-2.627S125
G1 X-8.756S0
G1 X-5.983S125
G1 X-8.22S0
G1 X-6.413S125
G1 X-4.449S0
G1 X-6.661S125
G1 Y-0.1S0
G1 X6.661S125
G1 X4.677S0
G1 X5.959S125
G1 X8.655S0
G1 X5.563S125
G1 X8.967S0
G1 X2.627S125
G1 Y-0.1S0
G1 X-2.627S125
G1 X-9.214S0
G1 X-5.079S125
G1 X-9.138S0
G1 X-5.456S125
G1 X-4.934S0
G1 X-6.661S125
G1 Y-0.1S0
G1 X6.661S125
G1 X5.248S0
G1 X4.842S125
G1 X9.723S0
G1 X4.508S125
G1 X9.5S0
G1 X2.627S125
G1 Y-0.1S0
G1 X-2.627S125
G1 X-9.828S0
G1 X-3.863S125
G1 X-10.381S0
G1 X-4.15S125
G1 X-7.386S0
G1 X-2.423S125
G1 Y-0.1S0
G1 X2.423S125
G1 X7.861S0
G1 X3.256S125
G1 X11.22S0
G1 X3.019S125
G1 X10.252S0
G1 X2.627S125
G1 Y-0.1S0
G1 X-2.627S125
G1 X-10.916S0
G1 X-1.707S125
G1 X-12.537S0
G1 X-1.845S125
G1 X-8.603S0
G1 X-2.423S125
G1 Y-0.1S0
G1 X2.423S125
G1 X35.608S0
G1 X2.627S125
G1 Y-0.1S0
G1 X-2.627S125
G1 X-35.608S0
G1 X-2.423S125
G1 Y-0.1S0
G1 X2.423S125
G1 X35.608S0
G1 X2.627S125
G1 Y-0.1S0
G1 X-2.627S125
G1 X-35.608S0
G1 X-2.423S125
G1 Y-0.1S0
G1 X2.423S125
G1 X35.608S0
G1 X2.627S125
G1 Y-0.1S0
G1 X-2.627S125
G1 X-35.608S0
G1 X-2.423S125
G1 Y-0.1S0
G1 X2.423S125
G1 X35.608S0
G1 X2.627S125
G1 Y-0.1S0
G1 X-2.627S125
G1 X-35.608S0
G1 X-2.423S125
G1 Y-0.1S0
G1 X2.423S125
G1 X35.608S0
G1 X2.627S125
G1 Y-0.1S0
G1 X-2.627S125
G1 X-35.608S0
G1 X-2.423S125
G1 Y-0.1S0
G1 X2.423S125
G1 X35.608S0
G1 X2.627S125
G1 Y-0.1S0
G1 X-2.627S125
G1 X-35.608S0
G1 X-2.423S125
G1 Y-0.1S0
G1 X2.423S125
G1 X35.608S0
G1 X2.627S125
G1 Y-0.1S0
G1 X-2.627S125
G1 X-35.608S0
G1 X-2.423S125
G1 Y-0.1S0
G1 X2.423S125
G1 X35.608S0
G1 X2.627S125
G1 Y-0.1S0
G1 X-2.627S125
G1 X-35.608S0
G1 X-2.423S125
G1 Y-0.1S0
G1 X2.423S125
G1 X35.608S0
G1 X2.627S125
G1 Y-0.1S0
G1 X-2.627S125
G1 X-35.608S0
G1 X-2.423S125
G1 Y-0.1S0
G1 X2.423S125
G1 X35.608S0
G1 X2.627S125
G1 Y-0.1S0
G1 X-2.627S125
G1 X-35.608S0
G1 X-2.423S125
G1 Y-0.1S0
G1 X2.423S125
G1 X35.608S0
G1 X2.627S125
G1 Y-0.1S0
G1 X-2.627S125
G1 X-35.608S0
G1 X-2.423S125
G1 Y-0.1S0
G1 X2.423S125
G1 X35.608S0
G1 X2.627S125
G1 Y-0.1S0
G1 X-2.627S125
G1 X-35.608S0
G1 X-2.423S125
G1 Y-0.1S0
G1 X2.423S125
G1 X35.608S0
G1 X2.627S125
G1 Y-0.1S0
G1 X-2.627S125
G1 X-35.608S0
G1 X-2.423S125
G1 Y-0.1S0
G1 X2.423S125
G1 X35.608S0
G1 X2.627S125
G1 Y-0.1S0
G1 X-2.627S125
G1 X-35.608S0
G1 X-2.423S125
G1 Y-0.1S0
G1 X2.423S125
G1 X29.042S0
G1 X15.732S125
G1 Y-0.1S0
G1 X-15.732S125
G1 X-29.042S0
G1 X-2.423S125
G1 Y-0.1S0
G1 X2.423S125
G1 X29.042S0
G1 X15.732S125
G1 Y-0.1S0
G1 X-15.732S125
G1 X-29.042S0
G1 X-2.423S125
G1 Y-0.1S0
G1 X2.352S125
G1 X29.113S0
G1 X15.732S125
G1 Y-0.1S0
G1 X-15.732S125
G1 X-29.28S0
G1 X-2.185S125
G1 Y-0.1S0
G1 X2.018S125
G1 X29.447S0
G1 X15.732S125
G1 Y-0.1S0
G1 X-15.732S125
G1 X-29.615S0
G1 X-1.85S125
G1 Y-0.1S0
G1 X1.683S125
G1 X29.782S0
G1 X15.732S125
G1 Y-0.1S0
G1 X-15.732S125
G1 X-29.949S0
G1 X-1.516S125
G1 Y-0.1S0
G1 X1.349S125
G1 X30.116S0
G1 X15.732S125
G1 Y-0.1S0
G1 X-15.732S125
G1 X-30.283S0
G1 X-1.182S125
G1 Y-0.1S0
G1 X1.014S125
G1 X30.451S0
G1 X15.732S125
G1 Y-0.1S0
G1 X-15.732S125
G1 X-30.618S0
G1 X-0.847S125
G1 Y-0.1S0
G1 X0.68S125
G1 X30.785S0
G1 X15.732S125
G1 Y-0.1S0
G1 X-15.732S125
G1 X-30.952S0
G1 X-0.513S125
G1 Y-0.1S0
G1 X0.346S125
G1 X31.119S0
G1 X15.732S125
G1 Y-0.1S0
G1 X-15.732S125
G1 X-31.286S0
G1 X-0.179S125
G1 Y-0.1S0
G1 X0.011S125
G1 X31.454S0
G1 X15.732S125
G1 Y-0.1S0
G1 X-15.732S125
G1 Y-0.1S0
G1 X15.732S125
G1 Y-0.1S0
G1 X-15.732S125
G1 Y-0.1S0
G1 X15.732S125
; Cut @ 12000 mm/min, 10% power
M15 S4
M5 S0
G0 X0Y-0.05
; Layer Tekst
M4
G1 X-15.732Y-0S100F12000
G1 X-0Y2.322
G1 X6.566Y0
G1 X0Y17.356
G1 X2.627Y-0
G1 X-0Y-17.356
G1 X6.539Y0
G1 X0Y-2.322
M5 S0
G0 X-18.149Y8.201
M4
G1 X0.27Y0.291S100
G1 X0.238Y0.313
G1 X0.206Y0.338
G1 X0.174Y0.36
G1 X0.143Y0.385
G1 X0.11Y0.407
G1 X0.078Y0.432
G1 X0.047Y0.454
G1 X-8.029Y0
G1 X0.05Y-0.435
G1 X0.068Y-0.408
G1 X0.088Y-0.379
G1 X0.105Y-0.352
G1 X0.125Y-0.323
G1 X0.143Y-0.295
G1 X0.161Y-0.267
G1 X0.181Y-0.239
G1 X0.302Y-0.327
G1 X0.323Y-0.284
G1 X0.345Y-0.239
G1 X0.367Y-0.197
G1 X0.388Y-0.152
G1 X0.41Y-0.11
G1 X0.431Y-0.065
G1 X0.453Y-0.022
G1 X0.411Y0.018
G1 X0.395Y0.052
G1 X0.378Y0.087
G1 X0.361Y0.122
G1 X0.345Y0.156
G1 X0.327Y0.192
G1 X0.311Y0.226
G1 X0.295Y0.261
M5 S0
G0 X2.489Y-0.592
M4
G1 X-0.438Y-0.522S100
G1 X-0.484Y-0.465
G1 X-0.52Y-0.404
G1 X-0.553Y-0.341
G1 X-0.589Y-0.28
G1 X-0.623Y-0.217
G1 X-0.658Y-0.155
G1 X-0.693Y-0.093
G1 X-0.727Y-0.031
G1 X-0.704Y0.03
G1 X-0.672Y0.091
G1 X-0.638Y0.152
G1 X-0.606Y0.213
G1 X-0.572Y0.274
G1 X-0.54Y0.334
G1 X-0.506Y0.396
G1 X-0.474Y0.456
G1 X-0.428Y0.511
G1 X-0.371Y0.561
G1 X-0.314Y0.61
G1 X-0.257Y0.66
G1 X-0.2Y0.71
G1 X-0.143Y0.758
G1 X-0.086Y0.809
G1 X-0.028Y0.857
G1 X0.003Y0.269
G1 X0.01Y0.376
G1 X10.723Y-0
G1 X-0.05Y0.57
G1 X-0.084Y0.535
G1 X-0.118Y0.502
G1 X-0.151Y0.467
G1 X-0.184Y0.432
G1 X-0.218Y0.398
G1 X-0.251Y0.364
G1 X-0.284Y0.329
G1 X-0.311Y0.293
G1 X-0.329Y0.253
G1 X-0.348Y0.215
G1 X-0.366Y0.175
G1 X-0.385Y0.137
G1 X-0.404Y0.097
G1 X-0.422Y0.059
G1 X-0.441Y0.019
G1 X-0.329Y-0.01
G1 X-0.317Y-0.033
G1 X-0.304Y-0.055
G1 X-0.292Y-0.076
G1 X-0.28Y-0.098
G1 X-0.268Y-0.12
G1 X-0.255Y-0.142
G1 X-0.243Y-0.164
G1 X-0.231Y-0.187
G1 X-0.218Y-0.214
G1 X-0.207Y-0.239
G1 X-0.194Y-0.266
G1 X-0.181Y-0.291
G1 X-0.17Y-0.318
G1 X-0.157Y-0.343
G1 X-0.145Y-0.37
G1 X-2.518Y0.309
G1 X0.165Y0.532
G1 X0.196Y0.501
G1 X0.228Y0.47
G1 X0.26Y0.44
G1 X0.292Y0.409
G1 X0.324Y0.379
G1 X0.355Y0.348
G1 X0.387Y0.317
G1 X0.416Y0.283
G1 X0.445Y0.245
G1 X0.473Y0.208
G1 X0.5Y0.17
G1 X0.529Y0.132
G1 X0.556Y0.094
G1 X0.584Y0.057
G1 X0.613Y0.019
G1 X0.768Y-0.03
G1 X0.727Y-0.09
G1 X0.687Y-0.151
G1 X0.646Y-0.211
G1 X0.605Y-0.27
G1 X0.564Y-0.331
G1 X0.523Y-0.392
G1 X0.482Y-0.451
G1 X0.433Y-0.506
G1 X0.376Y-0.554
G1 X0.317Y-0.603
G1 X0.26Y-0.651
G1 X0.202Y-0.699
G1 X0.145Y-0.749
G1 X0.087Y-0.796
G1 X0.028Y-0.845
G1 X-0.029Y-0.874
G1 X-0.087Y-0.824
G1 X-0.146Y-0.773
G1 X-0.205Y-0.723
G1 X-0.262Y-0.673
G1 X-0.322Y-0.623
G1 X-0.379Y-0.572
M5 S0
G0 X-14.262Y1.131
M4
G1 X-0.082Y-0.45S100
G1 X-0.138Y-0.432
G1 X-0.192Y-0.415
G1 X-0.24Y-0.389
G1 X-0.28Y-0.354
G1 X-0.319Y-0.32
G1 X-0.36Y-0.286
G1 X-0.31Y-0.2
G1 X-0.361Y-0.184
G1 X-0.414Y-0.168
G1 X-0.465Y-0.153
G1 X-0.5Y-0.126
G1 X-0.517Y-0.09
G1 X-0.535Y-0.054
G1 X-0.553Y-0.018
G1 X-0.821Y0.03
G1 X-0.768Y0.09
G1 X-0.717Y0.151
G1 X-0.666Y0.212
G1 X-0.598Y0.263
G1 X-0.514Y0.306
G1 X-0.43Y0.348
G1 X-0.347Y0.392
G1 X-0.281Y0.447
G1 X-0.233Y0.517
G1 X-0.186Y0.587
G1 X-0.139Y0.657
G1 X2.383Y0.322
G1 X0.119Y-0.52
G1 X0.197Y-0.46
G1 X0.274Y-0.399
G1 X0.351Y-0.339
G1 X0.204Y-0.145
G1 X0.225Y-0.125
G1 X0.245Y-0.107
G1 X0.265Y-0.086
G1 X0.285Y-0.068
G1 X0.305Y-0.048
G1 X0.325Y-0.029
G1 X0.346Y-0.01
G1 X0.405Y0.009
G1 X0.374Y0.026
G1 X0.345Y0.043
G1 X0.314Y0.06
G1 X0.285Y0.077
G1 X0.254Y0.095
G1 X0.225Y0.112
G1 X0.194Y0.129
G1 X0.314Y0.286
G1 X0.224Y0.311
G1 X0.135Y0.334
G1 X0.045Y0.357
G1 X-0.019Y0.229
G1 X-0.056Y0.217
G1 X-0.093Y0.206
G1 X-0.13Y0.194
G1 X-0.17Y0.186
G1 X-0.213Y0.17
G1 X-0.254Y0.152
G1 X-0.297Y0.136
G1 X-0.114Y0.039
G1 X-0.158Y0.05
G1 X-0.202Y0.061
G1 X-0.539Y0.154
G1 X-0.715Y0.198
G1 X-1.047Y0.283
G1 X-0.573Y0.159
G1 X-0.525Y0.152
G1 X-0.475Y0.144
G1 X-0.427Y0.136
G1 X-0.377Y0.129
G1 X-0.329Y0.12
G1 X-0.28Y0.113
G1 X-0.484Y0.243
G1 X-0.428Y0.293
G1 X-0.374Y0.341
G1 X-0.319Y0.392
G1 X-0.254Y0.441
G1 X-0.182Y0.492
G1 X-0.109Y0.542
G1 X-0.037Y0.592
G1 X0.045Y0.595
G1 X0.133Y0.578
G1 X0.222Y0.56
G1 X0.311Y0.542
G1 X0.395Y0.503
G1 X0.473Y0.443
G1 X0.552Y0.383
G1 X0.631Y0.322
G1 X0.692Y0.256
G1 X0.737Y0.182
G1 X0.78Y0.11
G1 X0.824Y0.036
G1 X0.68Y-0.018
G1 X0.638Y-0.054
G1 X0.596Y-0.09
G1 X0.555Y-0.127
G1 X0.513Y-0.162
G1 X0.472Y-0.198
G1 X0.43Y-0.235
G1 X0.388Y-0.27
G1 X0.35Y-0.306
G1 X0.318Y-0.341
G1 X0.284Y-0.376
G1 X0.251Y-0.41
G1 X0.218Y-0.446
G1 X0.184Y-0.48
G1 X0.152Y-0.514
G1 X0.118Y-0.55
G1 X-2.41Y-0.376
G1 X-0.062Y0.349
G1 X-0.085Y0.327
G1 X-0.107Y0.307
G1 X-0.13Y0.285
G1 X-0.153Y0.265
G1 X-0.175Y0.244
G1 X-0.198Y0.223
G1 X-0.221Y0.201
G1 X-0.243Y0.18
G1 X-0.267Y0.155
G1 X-0.289Y0.132
G1 X-0.313Y0.107
G1 X-0.335Y0.084
G1 X-0.359Y0.06
G1 X-0.382Y0.035
G1 X-0.404Y0.012
G1 X-0.407Y-0.01
G1 X-0.379Y-0.032
G1 X-0.352Y-0.053
G1 X-0.325Y-0.074
G1 X-0.298Y-0.095
G1 X-0.27Y-0.117
G1 X-0.244Y-0.138
G1 X-0.217Y-0.158
G1 X-0.19Y-0.174
G1 X-0.165Y-0.18
G1 X-0.14Y-0.188
G1 X-0.114Y-0.195
G1 X-0.089Y-0.203
G1 X-0.063Y-0.209
G1 X-0.038Y-0.218
G1 X-0.013Y-0.224
G1 X0.045Y-0.388
G1 X0.134Y-0.344
G1 X0.225Y-0.3
G1 X0.314Y-0.257
G1 X0.148Y-0.083
G1 X0.195Y-0.089
G1 X0.242Y-0.094
G1 X0.288Y-0.099
G1 X0.335Y-0.105
G1 X0.381Y-0.111
G1 X0.428Y-0.116
G1 X1.118Y-0.286
G1 X0.593Y-0.16
G1 X0.542Y-0.153
G1 X0.49Y-0.148
G1 X0.439Y-0.143
G1 X0.388Y-0.136
G1 X0.336Y-0.131
G1 X0.284Y-0.125
G1 X0.487Y-0.269
G1 X0.424Y-0.315
G1 X0.361Y-0.363
G1 X0.299Y-0.409
G1 X0.234Y-0.444
G1 X0.167Y-0.467
G1 X0.1Y-0.49
G1 X0.034Y-0.512
G1 X-0.028Y-0.468
M5 S0
G0 X-13.065Y-1.438
M4
G1 X0Y-1.879S100
G1 X-1.787Y-0
G1 X0Y-3.53
G1 X-2.423Y-1.45
G1 X-0Y4.98
G1 X-2.451Y-0
G1 X0Y1.879
G1 X2.451Y0
G1 X-0Y8.336
G1 X-0.008Y0.47
G1 X-0.025Y0.379
G1 X-0.04Y0.286
G1 X-0.056Y0.193
G1 X-0.074Y0.141
G1 X-0.095Y0.125
G1 X-0.115Y0.109
G1 X-0.136Y0.095
G1 X-0.161Y0.077
G1 X-0.192Y0.054
G1 X-0.224Y0.033
G1 X-0.255Y0.011
G1 X-0.22Y-0.006
G1 X-0.251Y-0.018
G1 X-0.283Y-0.029
G1 X-0.316Y-0.041
G1 X-0.352Y2.134
G1 X0.501Y0.094
G1 X0.474Y0.067
G1 X0.447Y0.04
G1 X0.419Y0.014
G1 X0.627Y-0.026
G1 X0.551Y-0.078
G1 X0.477Y-0.13
G1 X0.403Y-0.182
G1 X0.339Y-0.225
G1 X0.284Y-0.257
G1 X0.23Y-0.29
G1 X0.176Y-0.322
G1 X0.07Y-0.193
G1 X0.061Y-0.24
G1 X0.051Y-0.286
G1 X0.042Y-0.333
G1 X0.032Y-0.38
G1 X0.024Y-0.427
G1 X0.013Y-0.473
G1 X0.005Y-0.521
G1 X0Y-8.201
G1 X1.787Y0
; Scan @ 6000 mm/min, 20% power
M15 S4
M5 S0
G0 X-12.511Y32.648
; Layer Fill+line
G1 X-2.5F6000S0
G1 X-4.004S200
G1 X-2.5S0
G1 X-1.433S0
G1 Y-0.1S0
G1 X2.5S0
G1 X6.87S200
G1 X2.5S0
G1 X1.002S0
G1 Y-0.1S0
G1 X-2.5S0
G1 X-8.874S200
G1 X-2.5S0
G1 X-0.809S0
G1 Y-0.1S0
G1 X2.5S0
G1 X10.492S200
G1 X2.5S0
G1 X0.704S0
G1 Y-0.1S0
G1 X-2.5S0
G1 X-11.9S200
G1 X-2.5S0
G1 X-0.591S0
G1 Y-0.1S0
G1 X2.5S0
G1 X13.082S200
G1 X2.5S0
G1 X0.555S0
G1 Y-0.1S0
G1 X-2.5S0
G1 X-14.192S200
G1 X-2.5S0
G1 X-0.507S0
G1 Y-0.1S0
G1 X2.5S0
G1 X15.206S200
G1 X2.5S0
G1 X0.466S0
G1 Y-0.1S0
G1 X-2.5S0
G1 X-16.138S200
G1 X-2.5S0
G1 X-0.442S0
G1 Y-0.1S0
G1 X2.5S0
G1 X17.022S200
G1 X2.5S0
G1 X0.409S0
G1 Y-0.1S0
G1 X-2.5S0
G1 X-17.84S200
G1 X-2.5S0
G1 X-0.391S0
G1 Y-0.1S0
G1 X2.5S0
G1 X18.622S200
G1 X2.5S0
G1 X0.372S0
G1 Y-0.1S0
G1 X-2.5S0
G1 X-19.366S200
G1 X-2.5S0
G1 X-0.348S0
G1 Y-0.1S0
G1 X2.5S0
G1 X20.062S200
G1 X2.5S0
G1 X0.347S0
G1 Y-0.1S0
G1 X-2.5S0
G1 X-20.756S200
G1 X-2.5S0
G1 X-0.312S0
G1 Y-0.1S0
G1 X2.5S0
G1 X21.38S200
G1 X2.5S0
G1 X0.312S0
G1 Y-0.1S0
G1 X-2.5S0
G1 X-22.004S200
G1 X-2.5S0
G1 X-0.299S0
G1 Y-0.1S0
G1 X2.5S0
G1 X22.602S200
G1 X2.5S0
G1 X0.281S0
G1 Y-0.1S0
G1 X-2.5S0
G1 X-23.164S200
G1 X-2.5S0
G1 X-0.281S0
G1 Y-0.1S0
G1 X2.5S0
G1 X23.726S200
G1 X2.5S0
G1 X0.265S0
G1 Y-0.1S0
G1 X-2.5S0
G1 X-24.256S200
G1 X-2.5S0
G1 X-0.254S0
G1 Y-0.1S0
G1 X2.5S0
G1 X24.764S200
G1 X2.5S0
G1 X0.255S0
G1 Y-0.1S0
G1 X-2.5S0
G1 X-25.274S200
G1 X-2.5S0
G1 X-0.238S0
G1 Y-0.1S0
G1 X2.5S0
G1 X25.75S200
G1 X2.5S0
G1 X0.231S0
G1 Y-0.1S0
G1 X-2.5S0
G1 X-26.212S200
G1 X-2.5S0
G1 X-0.231S0
G1 Y-0.1S0
G1 X2.5S0
G1 X26.674S200
G1 X2.5S0
G1 X0.22S0
G1 Y-0.1S0
G1 X-2.5S0
G1 X-27.114S200
G1 X-2.5S0
G1 X-0.21S0
G1 Y-0.1S0
G1 X2.5S0
G1 X27.534S200
G1 X2.5S0
G1 X0.21S0
G1 Y-0.1S0
G1 X-2.5S0
G1 X-27.954S200
G1 X-2.5S0
G1 X-0.205S0
G1 Y-0.1S0
G1 X2.5S0
G1 X28.364S200
G1 X2.5S0
G1 X0.191S0
G1 Y-0.1S0
G1 X-2.5S0
G1 X-28.746S200
G1 X-2.5S0
G1 X-0.191S0
G1 Y-0.1S0
G1 X2.5S0
G1 X29.128S200
G1 X2.5S0
G1 X0.19S0
G1 Y-0.1S0
G1 X-2.5S0
G1 X-29.508S200
G1 X-2.5S0
G1 X-0.178S0
G1 Y-0.1S0
G1 X2.5S0
G1 X29.864S200
G1 X2.5S0
G1 X0.173S0
G1 Y-0.1S0
G1 X-2.5S0
G1 X-30.21S200
G1 X-2.5S0
G1 X-0.174S0
G1 Y-0.1S0
G1 X2.5S0
G1 X30.558S200
G1 X2.5S0
G1 X0.171S0
G1 Y-0.1S0
G1 X-2.5S0
G1 X-30.9S200
G1 X-2.5S0
G1 X-0.157S0
G1 Y-0.1S0
G1 X2.5S0
G1 X31.214S200
G1 X2.5S0
G1 X0.158S0
G1 Y-0.1S0
G1 X-2.5S0
G1 X-31.529S200
G1 X-2.5S0
G1 X-0.158S0
G1 Y-0.1S0
G1 X2.5S0
G1 X31.844S200
G1 X2.5S0
G1 X0.152S0
G1 Y-0.1S0
G1 X-2.5S0
G1 X-32.148S200
G1 X-2.5S0
G1 X-0.142S0
G1 Y-0.1S0
G1 X2.5S0
G1 X32.432S200
G1 X2.5S0
G1 X0.142S0
G1 Y-0.1S0
G1 X-2.5S0
G1 X-32.716S200
G1 X-2.5S0
G1 X-0.143S0
G1 Y-0.1S0
G1 X2.5S0
G1 X33.002S200
G1 X2.5S0
G1 X0.136S0
G1 Y-0.1S0
G1 X-2.5S0
G1 X-33.274S200
G1 X-2.5S0
G1 X-0.128S0
G1 Y-0.1S0
G1 X2.5S0
G1 X33.53S200
G1 X2.5S0
G1 X0.128S0
G1 Y-0.1S0
G1 X-2.5S0
G1 X-33.786S200
G1 X-2.5S0
G1 X-0.129S0
G1 Y-0.1S0
G1 X2.5S0
G1 X34.044S200
G1 X2.5S0
G1 X0.123S0
G1 Y-0.1S0
G1 X-2.5S0
G1 X-34.29S200
G1 X-2.5S0
G1 X-0.115S0
G1 Y-0.1S0
G1 X2.5S0
G1 X34.52S200
G1 X2.5S0
G1 X0.115S0
G1 Y-0.1S0
G1 X-2.5S0
G1 X-34.75S200
G1 X-2.5S0
G1 X-0.115S0
G1 Y-0.1S0
G1 X2.5S0
G1 X34.98S200
G1 X2.5S0
G1 X0.113S0
G1 Y-0.1S0
G1 X-2.5S0
G1 X-35.206S200
G1 X-2.5S0
G1 X-0.103S0
G1 Y-0.1S0
G1 X2.5S0
G1 X35.412S200
G1 X2.5S0
G1 X0.102S0
G1 Y-0.1S0
G1 X-2.5S0
G1 X-35.616S200
G1 X-2.5S0
G1 X-0.102S0
G1 Y-0.1S0
G1 X2.5S0
G1 X35.82S200
G1 X2.5S0
G1 X0.103S0
G1 Y-0.1S0
G1 X-2.5S0
G1 X-36.026S200
G1 X-2.5S0
G1 X-0.092S0
G1 Y-0.1S0
G1 X2.5S0
G1 X36.21S200
G1 X2.5S0
G1 X0.09S0
G1 Y-0.1S0
G1 X-2.5S0
G1 X-36.39S200
G1 X-2.5S0
G1 X-0.091S0
G1 Y-0.1S0
G1 X2.5S0
G1 X36.572S200
G1 X2.5S0
G1 X0.09S0
G1 Y-0.1S0
G1 X-2.5S0
G1 X-36.752S200
G1 X-2.5S0
G1 X-0.086S0
G1 Y-0.1S0
G1 X2.5S0
G1 X36.924S200
G1 X2.5S0
G1 X0.079S0
G1 Y-0.1S0
G1 X-2.5S0
G1 X-37.082S200
G1 X-2.5S0
G1 X-0.078S0
G1 Y-0.1S0
G1 X2.5S0
G1 X37.239S200
G1 X2.5S0
G1 X0.078S0
G1 Y-0.1S0
G1 X-2.5S0
G1 X-37.396S200
G1 X-2.5S0
G1 X-0.079S0
G1 Y-0.1S0
G1 X2.5S0
G1 X37.554S200
G1 X2.5S0
G1 X0.069S0
G1 Y-0.1S0
G1 X-2.5S0
G1 X-37.692S200
G1 X-2.5S0
G1 X-0.068S0
G1 Y-0.1S0
G1 X2.5S0
G1 X37.828S200
G1 X2.5S0
G1 X0.068S0
G1 Y-0.1S0
G1 X-2.5S0
G1 X-37.963S200
G1 X-2.5S0
G1 X-0.068S0
G1 Y-0.1S0
G1 X2.5S0
G1 X38.098S200
G1 X2.5S0
G1 X0.065S0
G1 Y-0.1S0
G1 X-2.5S0
G1 X-38.228S200
G1 X-2.5S0
G1 X-0.057S0
G1 Y-0.1S0
G1 X2.5S0
G1 X38.342S200
G1 X2.5S0
G1 X0.057S0
G1 Y-0.1S0
G1 X-2.5S0
G1 X-38.456S200
G1 X-2.5S0
G1 X-0.057S0
G1 Y-0.1S0
G1 X2.5S0
G1 X38.57S200
G1 X2.5S0
G1 X0.057S0
G1 Y-0.1S0
G1 X-2.5S0
G1 X-38.683S200
G1 X-2.5S0
G1 X-0.052S0
G1 Y-0.1S0
G1 X2.5S0
G1 X38.786S200
G1 X2.5S0
G1 X0.046S0
G1 Y-0.1S0
G1 X-2.5S0
G1 X-38.878S200
G1 X-2.5S0
G1 X-0.046S0
G1 Y-0.1S0
G1 X2.5S0
G1 X38.97S200
G1 X2.5S0
G1 X0.047S0
G1 Y-0.1S0
G1 X-2.5S0
G1 X-39.063S200
G1 X-2.5S0
G1 X-0.047S0
G1 Y-0.1S0
G1 X2.5S0
G1 X39.156S200
G1 X2.5S0
G1 X0.039S0
G1 Y-0.1S0
G1 X-2.5S0
G1 X-39.234S200
G1 X-2.5S0
G1 X-0.036S0
G1 Y-0.1S0
G1 X2.5S0
G1 X39.306S200
G1 X2.5S0
G1 X0.035S0
G1 Y-0.1S0
G1 X-2.5S0
G1 X-39.376S200
G1 X-2.5S0
G1 X-0.036S0
G1 Y-0.1S0
G1 X2.5S0
G1 X39.448S200
G1 X2.5S0
G1 X0.036S0
G1 Y-0.1S0
G1 X-2.5S0
G1 X-39.52S200
G1 X-2.5S0
G1 X-0.028S0
G1 Y-0.1S0
G1 X2.5S0
G1 X39.576S200
G1 X2.5S0
G1 X0.026S0
G1 Y-0.1S0
G1 X-2.5S0
G1 X-39.627S200
G1 X-2.5S0
G1 X-0.026S0
G1 Y-0.1S0
G1 X2.5S0
G1 X39.678S200
G1 X2.5S0
G1 X0.025S0
G1 Y-0.1S0
G1 X-2.5S0
G1 X-39.728S200
G1 X-2.5S0
G1 X-0.026S0
G1 Y-0.1S0
G1 X2.5S0
G1 X39.78S200
G1 X2.5S0
G1 X0.018S0
G1 Y-0.1S0
G1 X-2.5S0
G1 X-39.816S200
G1 X-2.5S0
G1 X-0.015S0
G1 Y-0.1S0
G1 X2.5S0
G1 X39.846S200
G1 X2.5S0
G1 X0.015S0
G1 Y-0.1S0
G1 X-2.5S0
G1 X-39.876S200
G1 X-2.5S0
G1 X-0.015S0
G1 Y-0.1S0
G1 X2.5S0
G1 X39.906S200
G1 X2.5S0
G1 X0.016S0
G1 Y-0.1S0
G1 X-2.5S0
G1 X-39.938S200
G1 X-2.5S0
G1 X-0.008S0
G1 Y-0.1S0
G1 X2.5S0
G1 X39.954S200
G1 X2.5S0
G1 X0.005S0
G1 Y-0.1S0
G1 X-2.5S0
G1 X-39.964S200
G1 X-2.5S0
G1 X-0.005S0
G1 Y-0.1S0
G1 X2.5S0
G1 X39.974S200
G1 X2.5S0
G1 X0.005S0
G1 Y-0.1S0
G1 X-2.5S0
G1 X-39.984S200
G1 X-2.5S0
G1 X-0.005S0
G1 Y-0.1S0
G1 X2.5S0
G1 X39.995S200
G1 X2.5S0
G1 Y-0.1S0
G1 X-2.5S0
G1 X-39.995S200
G1 X-2.5S0
G1 Y-0.1S0
G1 X2.505S0
G1 X39.984S200
G1 X2.5S0
G1 Y-0.1S0
G1 X-2.505S0
G1 X-39.974S200
G1 X-2.5S0
G1 Y-0.1S0
G1 X2.505S0
G1 X39.964S200
G1 X2.5S0
G1 Y-0.1S0
G1 X-2.505S0
G1 X-39.954S200
G1 X-2.5S0
G1 X0.008S0
G1 Y-0.1S0
G1 X2.5S0
G1 X39.938S200
G1 X2.5S0
G1 X-0.016S0
G1 Y-0.1S0
G1 X-2.5S0
G1 X-39.906S200
G1 X-2.5S0
G1 X0.015S0
G1 Y-0.1S0
G1 X2.5S0
G1 X39.876S200
G1 X2.5S0
G1 X-0.015S0
G1 Y-0.1S0
G1 X-2.5S0
G1 X-39.846S200
G1 X-2.5S0
G1 X0.015S0
G1 Y-0.1S0
G1 X2.5S0
G1 X39.816S200
G1 X2.5S0
G1 X-0.018S0
G1 Y-0.1S0
G1 X-2.5S0
G1 X-39.78S200
G1 X-2.5S0
G1 X0.026S0
G1 Y-0.1S0
G1 X2.5S0
G1 X39.728S200
G1 X2.5S0
G1 X-0.025S0
G1 Y-0.1S0
G1 X-2.5S0
G1 X-39.678S200
G1 X-2.5S0
G1 X0.026S0
G1 Y-0.1S0
G1 X2.5S0
G1 X39.627S200
G1 X2.5S0
G1 X-0.026S0
G1 Y-0.1S0
G1 X-2.5S0
G1 X-39.576S200
G1 X-2.5S0
G1 X0.028S0
G1 Y-0.1S0
G1 X2.5S0
G1 X39.52S200
G1 X2.5S0
G1 X-0.036S0
G1 Y-0.1S0
G1 X-2.5S0
G1 X-39.448S200
G1 X-2.5S0
G1 X0.036S0
G1 Y-0.1S0
G1 X2.5S0
G1 X39.376S200
G1 X2.5S0
G1 X-0.035S0
G1 Y-0.1S0
G1 X-2.5S0
G1 X-39.306S200
G1 X-2.5S0
G1 X0.036S0
G1 Y-0.1S0
G1 X2.5S0
G1 X39.234S200
G1 X2.5S0
G1 X-0.039S0
G1 Y-0.1S0
G1 X-2.5S0
G1 X-39.156S200
G1 X-2.5S0
G1 X0.047S0
G1 Y-0.1S0
G1 X2.5S0
G1 X39.063S200
G1 X2.5S0
G1 X-0.047S0
G1 Y-0.1S0
G1 X-2.5S0
G1 X-38.97S200
G1 X-2.5S0
G1 X0.046S0
G1 Y-0.1S0
G1 X2.5S0
G1 X38.878S200
G1 X2.5S0
G1 X-0.046S0
G1 Y-0.1S0
G1 X-2.5S0
G1 X-38.786S200
G1 X-2.5S0
G1 X0.052S0
G1 Y-0.1S0
G1 X2.5S0
G1 X38.683S200
G1 X2.5S0
G1 X-0.057S0
G1 Y-0.1S0
G1 X-2.5S0
G1 X-38.57S200
G1 X-2.5S0
G1 X0.057S0
G1 Y-0.1S0
G1 X2.5S0
G1 X38.456S200
G1 X2.5S0
G1 X-0.057S0
G1 Y-0.1S0
G1 X-2.5S0
G1 X-38.342S200
G1 X-2.5S0
G1 X0.057S0
G1 Y-0.1S0
G1 X2.5S0
G1 X38.228S200
G1 X2.5S0
G1 X-0.065S0
G1 Y-0.1S0
G1 X-2.5S0
G1 X-38.098S200
G1 X-2.5S0
G1 X0.068S0
G1 Y-0.1S0
G1 X2.5S0
G1 X37.963S200
G1 X2.5S0
G1 X-0.068S0
G1 Y-0.1S0
G1 X-2.5S0
G1 X-37.828S200
G1 X-2.5S0
G1 X0.068S0
G1 Y-0.1S0
G1 X2.5S0
G1 X37.692S200
G1 X2.5S0
G1 X-0.069S0
G1 Y-0.1S0
G1 X-2.5S0
G1 X-37.554S200
G1 X-2.5S0
G1 X0.079S0
G1 Y-0.1S0
G1 X2.5S0
G1 X37.396S200
G1 X2.5S0
G1 X-0.078S0
G1 Y-0.1S0
G1 X-2.5S0
G1 X-37.239S200
G1 X-2.5S0
G1 X0.078S0
G1 Y-0.1S0
G1 X2.5S0
G1 X37.082S200
G1 X2.5S0
G1 X-0.079S0
G1 Y-0.1S0
G1 X-2.5S0
G1 X-36.924S200
G1 X-2.5S0
G1 X0.086S0
G1 Y-0.1S0
G1 X2.5S0
G1 X36.752S200
G1 X2.5S0
G1 X-0.09S0
G1 Y-0.1S0
G1 X-2.5S0
G1 X-36.572S200
G1 X-2.5S0
G1 X0.091S0
G1 Y-0.1S0
G1 X2.5S0
G1 X36.39S200
G1 X2.5S0
G1 X-0.09S0
G1 Y-0.1S0
G1 X-2.5S0
G1 X-36.21S200
G1 X-2.5S0
G1 X0.092S0
G1 Y-0.1S0
G1 X2.5S0
G1 X36.026S200
G1 X2.5S0
G1 X-0.103S0
G1 Y-0.1S0
G1 X-2.5S0
G1 X-35.82S200
G1 X-2.5S0
G1 X0.102S0
G1 Y-0.1S0
G1 X2.5S0
G1 X35.616S200
G1 X2.5S0
G1 X-0.102S0
G1 Y-0.1S0
G1 X-2.5S0
G1 X-35.412S200
G1 X-2.5S0
G1 X0.103S0
G1 Y-0.1S0
G1 X2.5S0
G1 X35.206S200
G1 X2.5S0
G1 X-0.113S0
G1 Y-0.1S0
G1 X-2.5S0
G1 X-34.98S200
G1 X-2.5S0
G1 X0.115S0
G1 Y-0.1S0
G1 X2.5S0
G1 X34.75S200
G1 X2.5S0
G1 X-0.115S0
G1 Y-0.1S0
G1 X-2.5S0
G1 X-34.52S200
G1 X-2.5S0
G1 X0.115S0
G1 Y-0.1S0
G1 X2.5S0
G1 X34.29S200
G1 X2.5S0
G1 X-0.123S0
G1 Y-0.1S0
G1 X-2.5S0
G1 X-34.044S200
G1 X-2.5S0
G1 X0.129S0
G1 Y-0.1S0
G1 X2.5S0
G1 X33.786S200
G1 X2.5S0
G1 X-0.128S0
G1 Y-0.1S0
G1 X-2.5S0
G1 X-33.53S200
G1 X-2.5S0
G1 X0.128S0
G1 Y-0.1S0
G1 X2.5S0
G1 X33.274S200
G1 X2.5S0
G1 X-0.136S0
G1 Y-0.1S0
G1 X-2.5S0
G1 X-33.002S200
G1 X-2.5S0
G1 X0.143S0
G1 Y-0.1S0
G1 X2.5S0
G1 X32.716S200
G1 X2.5S0
G1 X-0.142S0
G1 Y-0.1S0
G1 X-2.5S0
G1 X-32.432S200
G1 X-2.5S0
G1 X0.142S0
G1 Y-0.1S0
G1 X2.5S0
G1 X32.148S200
G1 X2.5S0
G1 X-0.152S0
G1 Y-0.1S0
G1 X-2.5S0
G1 X-31.844S200
G1 X-2.5S0
G1 X0.158S0
G1 Y-0.1S0
G1 X2.5S0
G1 X31.529S200
G1 X2.5S0
G1 X-0.158S0
G1 Y-0.1S0
G1 X-2.5S0
G1 X-31.214S200
G1 X-2.5S0
G1 X0.157S0
G1 Y-0.1S0
G1 X2.5S0
G1 X30.9S200
G1 X2.5S0
G1 X-0.171S0
G1 Y-0.1S0
G1 X-2.5S0
G1 X-30.558S200
G1 X-2.5S0
G1 X0.174S0
G1 Y-0.1S0
G1 X2.5S0
G1 X30.21S200
G1 X2.5S0
G1 X-0.173S0
G1 Y-0.1S0
G1 X-2.5S0
G1 X-29.864S200
G1 X-2.5S0
G1 X0.178S0
G1 Y-0.1S0
G1 X2.5S0
G1 X29.508S200
G1 X2.5S0
G1 X-0.19S0
G1 Y-0.1S0
G1 X-2.5S0
G1 X-29.128S200
G1 X-2.5S0
G1 X0.191S0
G1 Y-0.1S0
G1 X2.5S0
G1 X28.746S200
G1 X2.5S0
G1 X-0.191S0
G1 Y-0.1S0
G1 X-2.5S0
G1 X-28.364S200
G1 X-2.5S0
G1 X0.205S0
G1 Y-0.1S0
G1 X2.5S0
G1 X27.954S200
G1 X2.5S0
G1 X-0.21S0
G1 Y-0.1S0
G1 X-2.5S0
G1 X-27.534S200
G1 X-2.5S0
G1 X0.21S0
G1 Y-0.1S0
G1 X2.5S0
G1 X27.114S200
G1 X2.5S0
G1 X-0.22S0
G1 Y-0.1S0
G1 X-2.5S0
G1 X-26.674S200
G1 X-2.5S0
G1 X0.231S0
G1 Y-0.1S0
G1 X2.5S0
G1 X26.212S200
G1 X2.5S0
G1 X-0.231S0
G1 Y-0.1S0
G1 X-2.5S0
G1 X-25.75S200
G1 X-2.5S0
G1 X0.238S0
G1 Y-0.1S0
G1 X2.5S0
G1 X25.274S200
G1 X2.5S0
G1 X-0.255S0
G1 Y-0.1S0
G1 X-2.5S0
G1 X-24.764S200
G1 X-2.5S0
G1 X0.254S0
G1 Y-0.1S0
G1 X2.5S0
G1 X24.256S200
G1 X2.5S0
G1 X-0.265S0
G1 Y-0.1S0
G1 X-2.5S0
G1 X-23.726S200
G1 X-2.5S0
G1 X0.281S0
G1 Y-0.1S0
G1 X2.5S0
G1 X23.164S200
G1 X2.5S0
G1 X-0.281S0
G1 Y-0.1S0
G1 X-2.5S0
G1 X-22.602S200
G1 X-2.5S0
G1 X0.299S0
G1 Y-0.1S0
G1 X2.5S0
G1 X22.004S200
G1 X2.5S0
G1 X-0.312S0
G1 Y-0.1S0
G1 X-2.5S0
G1 X-21.38S200
G1 X-2.5S0
G1 X0.312S0
G1 Y-0.1S0
G1 X2.5S0
G1 X20.756S200
G1 X2.5S0
G1 X-0.347S0
G1 Y-0.1S0
G1 X-2.5S0
G1 X-20.062S200
G1 X-2.5S0
G1 X0.348S0
G1 Y-0.1S0
G1 X2.5S0
G1 X19.366S200
G1 X2.5S0
G1 X-0.372S0
G1 Y-0.1S0
G1 X-2.5S0
G1 X-18.622S200
G1 X-2.5S0
G1 X0.391S0
G1 Y-0.1S0
G1 X2.5S0
G1 X17.84S200
G1 X2.5S0
G1 X-0.409S0
G1 Y-0.1S0
G1 X-2.5S0
G1 X-17.022S200
G1 X-2.5S0
G1 X0.442S0
G1 Y-0.1S0
G1 X2.5S0
G1 X16.138S200
G1 X2.5S0
G1 X-0.466S0
G1 Y-0.1S0
G1 X-2.5S0
G1 X-15.206S200
G1 X-2.5S0
G1 X0.507S0
G1 Y-0.1S0
G1 X2.5S0
G1 X14.192S200
G1 X2.5S0
G1 X-0.555S0
G1 Y-0.1S0
G1 X-2.5S0
G1 X-13.082S200
G1 X-2.5S0
G1 X0.591S0
G1 Y-0.1S0
G1 X2.5S0
G1 X11.9S200
G1 X2.5S0
G1 X-0.704S0
G1 Y-0.1S0
G1 X-2.5S0
G1 X-10.492S200
G1 X-2.5S0
G1 X0.809S0
G1 Y-0.1S0
G1 X2.5S0
G1 X8.874S200
G1 X2.5S0
G1 X-1.002S0
G1 Y-0.1S0
G1 X-2.5S0
G1 X-6.87S200
G1 X-2.5S0
G1 X1.433S0
G1 Y-0.1S0
G1 X2.5S0
G1 X4.004S200
G1 X2.5S0
; Cut @ 6000 mm/min, 40% power
M15 S4
M5 S0
G0 X-0.471Y0.153
; Layer Fill+line
M4
G1 X0.967Y0.112S400
G1 X0.949Y0.135
G1 X0.93Y0.157
G1 X0.908Y0.179
G1 X0.886Y0.2
G1 X0.862Y0.221
G1 X0.838Y0.241
G1 X0.811Y0.26
G1 X0.784Y0.279
G1 X0.756Y0.297
G1 X0.726Y0.314
G1 X0.694Y0.331
G1 X0.662Y0.347
G1 X0.629Y0.363
G1 X0.594Y0.378
G1 X0.557Y0.392
G1 X0.521Y0.406
G1 X0.481Y0.418
G1 X0.442Y0.432
G1 X0.4Y0.443
G1 X0.358Y0.454
G1 X0.315Y0.464
G1 X0.269Y0.475
G1 X0.224Y0.484
G1 X0.176Y0.492
G1 X0.127Y0.501
G1 X0.077Y0.507
G1 X0.026Y0.515
G1 X-0.026Y0.515
G1 X-0.077Y0.507
G1 X-0.127Y0.501
G1 X-0.176Y0.492
G1 X-0.224Y0.484
G1 X-0.269Y0.475
G1 X-0.315Y0.464
G1 X-0.358Y0.454
G1 X-0.4Y0.443
G1 X-0.442Y0.432
G1 X-0.481Y0.418
G1 X-0.521Y0.406
G1 X-0.557Y0.392
G1 X-0.594Y0.378
G1 X-0.629Y0.363
G1 X-0.662Y0.347
G1 X-0.694Y0.331
G1 X-0.726Y0.314
G1 X-0.756Y0.297
G1 X-0.784Y0.279
G1 X-0.811Y0.26
G1 X-0.838Y0.241
G1 X-0.862Y0.221
G1 X-0.886Y0.2
G1 X-0.908Y0.179
G1 X-0.93Y0.157
G1 X-0.949Y0.135
G1 X-0.967Y0.112
G1 X-0.985Y0.088
G1 X-1.001Y0.063
G1 X-1.016Y0.039
G1 X-1.029Y0.013
G1 X-1.029Y-0.013
G1 X-1.016Y-0.039
G1 X-1.001Y-0.063
G1 X-0.985Y-0.088
G1 X-0.967Y-0.112
G1 X-0.949Y-0.135
G1 X-0.93Y-0.157
G1 X-0.908Y-0.179
G1 X-0.886Y-0.2
G1 X-0.862Y-0.221
G1 X-0.838Y-0.241
G1 X-0.811Y-0.26
G1 X-0.784Y-0.279
G1 X-0.756Y-0.297
G1 X-0.726Y-0.314
G1 X-0.694Y-0.331
G1 X-0.662Y-0.347
G1 X-0.629Y-0.363
G1 X-0.594Y-0.378
G1 X-0.557Y-0.392
G1 X-0.521Y-0.406
G1 X-0.481Y-0.418
G1 X-0.442Y-0.432
G1 X-0.4Y-0.443
G1 X-0.358Y-0.454
G1 X-0.315Y-0.464
G1 X-0.269Y-0.475
G1 X-0.224Y-0.484
G1 X-0.176Y-0.492
G1 X-0.127Y-0.501
G1 X-0.077Y-0.507
G1 X-0.026Y-0.515
G1 X0.026Y-0.515
G1 X0.077Y-0.507
G1 X0.127Y-0.501
G1 X0.176Y-0.492
G1 X0.224Y-0.484
G1 X0.269Y-0.475
G1 X0.315Y-0.464
G1 X0.358Y-0.454
G1 X0.4Y-0.443
G1 X0.442Y-0.432
G1 X0.481Y-0.418
G1 X0.521Y-0.406
G1 X0.557Y-0.392
G1 X0.594Y-0.378
G1 X0.629Y-0.363
G1 X0.662Y-0.347
G1 X0.694Y-0.331
G1 X0.726Y-0.314
G1 X0.756Y-0.297
G1 X0.784Y-0.279
G1 X0.811Y-0.26
G1 X0.838Y-0.241
G1 X0.862Y-0.221
G1 X0.886Y-0.2
G1 X0.908Y-0.179
G1 X0.93Y-0.157
G1 X0.949Y-0.135
G1 X0.967Y-0.112
G1 X0.985Y-0.088
G1 X1.001Y-0.063
G1 X1.016Y-0.039
G1 X1.029Y-0.013
G1 X1.029Y0.013
G1 X1.016Y0.039
G1 X1.001Y0.063
G1 X0.985Y0.088
M15 S0
G1 S0
M5
M9 S0 N0
G90
; return to user-defined finish pos
G0 X0 Y0
M18
